X:169 
T:Paddy O'Brien's Hornpipe 
T:Western, Athlone
B:CRE3.217 (Cornphiopa Phadraig Ui Bhriain)
F:file ID: cre.3/169paddy_ob
N:1:CRE shows no repeats in this tune. Usually played in 
the key of C.
N:2:This is not a composition of +either+ Paddy O'Brien, but certainly
might have been +played+ by them.
R:hornpipe
L:1/8
%Q:150
M:C
K:D
ag|fdd2 AdFd|fdd2 Addc|BGG2 DGB,G|(3Bcd ce dfag|
fdd2 Add2|fdd2 Ad (3edc|BGG2 DGB,G|(3Bcd ce df||
ag| (3fgf df abaf|(3gag eg bc'ba| (3fgf df abaf|\
(3efe (3dcB A2ag|
(3fgf df abaf|(3gag eg bc'ba|f2df e2ce |d2 (3fec df||

%%

